X: 30
T: No_37_Cheyenne_Hand-Game_Song_(a).krn
N: Derived from No_37_Cheyenne_Hand-Game_Song_(a).krn
%%abc-version 2.0
%%abcx-abcm2ps-target-version 5.9.1 (29 Sep 2008)
%%abc-creator hum2abc beta
%%abcx-conversion-date 2019/03/15 08:27:55
%%humdrum-veritas 1818245467
%%humdrum-veritas-data 2024915570
%%linebreak <none>
%%barnumbers 0
L: 1/8
M: 2/4
K: A clef=bass
[K:clef=bass][M:2/4]F2=GF [I:setbarnb 2]| 
F2F2 | 
FE EC | 
C2C z | 
C2FC | 
C2C2 | 
CA, A,F, | 
F,2F, z | 
F,2A,F, | 
F,2F,2 | 
F,E, E,C, | 
C,2C, z | 
F,2A,F, | 
F,2F,2 | 
[M:3/4]F,E, E,C, C,D, | 
[M:2/4]C,3C, | 
C,2C, z :|]  



